X:3
T:Oran do Lios-Mor
Z:Jack Campin, http://www.campin.me.uk/
B:Captain Eoghan Anderson: Measan Milis as an Lios (The Sweet Lapdog of Lismore), 1925
F:http://www.campin.me.uk/Music/Lismore.abc
I:last edit 17-12-2013
M:2/4
L:1/8
Q:1/4=100
K:Eb
B|e3  e|f3  g|f3  e|e3
G|G3  e|e2 d2|c3  B|B3
c|B2 A2|G3  E|G2 B2|e3
c|B2 c2|E2 G2|F2 E2|E3|]

